X: 940
T: Rick's rambles
C: anon.
O: Ireland
B: Francis O'Neill: "The Dance Music of Ireland" (1907) no. 940
R: Hornpipe
Z: Transcribed by Frank Nordberg - http://www.musicaviva.com
F: http://www.musicaviva.com/abc/tunes/ireland/oneill-1001/oneill-1001-094
0.abc
M: C|
L: 1/8
K: G
(3(DEF)|G(FGA) B(DEF)|GBA(G FG)Ac|dgf(e dc)Bc|(3(dcd) (ed) cAFA|G(FGA) GB
 (3(dcB)|(cBA)(G FG)Ac|d(gfe d)cEF|A2G2G2:|
|:(Bc)|dcB(c ed)BG|(3(ABA) (EF) A(GFE)|DddB cAEF|GB (3(AGF) (GD)B,D|G(DEF
) GBdB|cBA(G FG)Ac|d(gfe) dcEF|A2G2G2:|
W:
W:
W: From Musica Viva - http://www.musicaviva.com
W: the Internet center for free sheet music downloads.


